www/assets/icons/sports_esports.svg

<svg xmlns="http://www.w3.org/2000/svg" width="24" height="24" viewBox="0 0 24 24" fill='currentColor'><path d="m21.58 16.09-1.09-7.66A3.996 3.996 0 0 0 16.53 5H7.47C5.48 5 3.79 6.46 3.51 8.43l-1.09 7.66a2.545 2.545 0 0 0 4.32 2.16L9 16h6l2.25 2.25c.48.48 1.13.75 1.8.75 1.56 0 2.75-1.37 2.53-2.91M11 11H9v2H8v-2H6v-1h2V8h1v2h2zm4-1c-.55 0-1-.45-1-1s.45-1 1-1 1 .45 1 1-.45 1-1 1m2 3c-.55 0-1-.45-1-1s.45-1 1-1 1 .45 1 1-.45 1-1 1"/></svg>

<svg width="24" height="24" viewBox="0 0 24 24" xmlns="http://www.w3.org/2000/svg" fill='currentColor'><path d="M21.58 16.09L20.49 8.43C20.21 6.46 18.52 5 16.53 5H7.47C5.48 5 3.79 6.46 3.51 8.43L2.42 16.09C2.2 17.63 3.39 19 4.94 19C5.62 19 6.26 18.73 6.74 18.25L9 16H15L17.25 18.25C17.73 18.73 18.38 19 19.05 19C20.61 19 21.8 17.63 21.58 16.09ZM11 11H9V13H8V11H6V10H8V8H9V10H11V11ZM15 10C14.45 10 14 9.55 14 9C14 8.45 14.45 8 15 8C15.55 8 16 8.45 16 9C16 9.55 15.55 10 15 10ZM17 13C16.45 13 16 12.55 16 12C16 11.45 16.45 11 17 11C17.55 11 18 11.45 18 12C18 12.55 17.55 13 17 13Z"/></svg>
